X:1
T:James Gibb editions
T:Psalm 87 (Becker) - Schütz
%%score [ ( 1 2 ) ( 3 4 ) ]
L:1/8
Q:1/4=98
M:2/2
K:C
V:1 treble nm="Soprano Alto"
V:2 treble 
V:3 bass nm="Tenor Bass"
V:4 bass 
V:1
"^Cornelius Becker\n(1561-1604)""^Psalm 87, SWV 184""^Heinrich Schütz\n(1585-1672)" c4 c2 c2 | %1
w: ~Fest ist ge-|
 c4 c4 | c2 B2 c4 | c4 B2 c2 | d4 B4 | c4 B4 | A8 |[M:2/2] ^c4 d2 B2 | =c4 A4 | d2 c2 B4 | %10
w: grün- det|Got- tes Stadt|auf heil- gem|Berg, die|er lieb|hat,|die Tor Zi-|on sind|schön er- baut,|
 =G4 A2 B2 | (c3 d e2) f2 | e4 d4 | c8 |] %14
w: der Herr auf|sei\- * * ne|Kir- che|schaut.|
V:2
 G4 F2 E2 | A4 E4 | A2 G2 G4 | G4 G2 G2 | F4 D4 | E4 E4 | E8 |[M:2/2] A4 A2 G2 | G4 F4 | %9
 A2 A2 ^G4 | E4 E2 G2 | (G2 E4) A2 | G4 G4 | G8 |] %14
V:3
 E4 C2 G2 | F4 G4 | F2 D2 C4 | E4 D2 G,2 | A,4 G,4 | (G,2 A,4) ^G,2 | A,8 |[M:2/2] E4 F2 D2 | %8
 E4"^2. Man predigt in ihr herrlich Ding\nhilf Gott, daß deinem Werk geling,\ndaß alles Volk von weit herkomm\nund Heiden viel in großer Summ.\n\n5.Das Evangelium wird man hörn\nin allen Sprachen treulich lehrn,\ndadurch erzeugt Gott seine Kind,\ndie nach sein'm Nam genennet sind.\n\n6. Man wird singen im Reigen schön\ndes Herrn Gesang mit süßem Ton,\neins um das ander singt mit Freud\nund lobet Gott in Ewigkeit." C4 | %9
 F2 E2 E4 | B,4 C2 D2 | (E3 D C2) D2 | (B,2 C4) B,2 | C8 |] %14
V:4
 C,4 A,2 E,2 | F,4 C,4 | F,2 G,2 C,4 | C,4 G,2 E,2 | D,4 G,4 | (C,3 D, E,2) E,2 | A,,8 | %7
[M:2/2] A,4 D2 G,2 | C4 F,4 | D,2 A,2 E,4 | E,4 A,2 G,2 | (C3 B, A,2) D,2 | (E,3 F, G,2) G,2 | %13
 C,8 |] %14

